public/assets/images/career/07.svg

<svg width="20" height="20" viewBox="0 0 20 20" fill="none" xmlns="http://www.w3.org/2000/svg">
<path fill-rule="evenodd" clip-rule="evenodd" d="M2.5 12.5H17.5C17.8314 12.4996 18.1491 12.3677 18.3834 12.1334C18.6177 11.8991 18.7496 11.5814 18.75 11.25V3.75C18.7492 3.41874 18.6172 3.10128 18.383 2.86705C18.1487 2.63281 17.8313 2.50084 17.5 2.5H2.5C2.16874 2.50084 1.85128 2.63281 1.61705 2.86705C1.38281 3.10128 1.25084 3.41874 1.25 3.75V11.25C1.25084 11.5813 1.38281 11.8987 1.61705 12.133C1.85128 12.3672 2.16874 12.4992 2.5 12.5ZM2.5 3.75H17.5V11.25H2.5V3.75ZM8.61108 9.57868C9.0222 9.85338 9.50555 10 10 10C10.6628 9.99926 11.2983 9.73563 11.7669 9.26695C12.2356 8.79827 12.4993 8.16281 12.5 7.5C12.5 7.00555 12.3534 6.5222 12.0787 6.11108C11.804 5.69995 11.4135 5.37952 10.9567 5.1903C10.4999 5.00108 9.99723 4.95157 9.51228 5.04804C9.02732 5.1445 8.58187 5.3826 8.23223 5.73223C7.8826 6.08187 7.6445 6.52732 7.54804 7.01228C7.45157 7.49723 7.50108 7.9999 7.6903 8.45671C7.87952 8.91353 8.19995 9.30397 8.61108 9.57868ZM9.30554 6.46066C9.5111 6.32331 9.75278 6.25 10 6.25C10.3314 6.25033 10.6492 6.38213 10.8835 6.61648C11.1179 6.85083 11.2497 7.16858 11.25 7.5C11.25 7.74723 11.1767 7.9889 11.0393 8.19446C10.902 8.40003 10.7068 8.56024 10.4784 8.65485C10.2499 8.74946 9.99862 8.77422 9.75614 8.72598C9.51366 8.67775 9.29093 8.5587 9.11612 8.38388C8.9413 8.20907 8.82225 7.98634 8.77402 7.74386C8.72579 7.50139 8.75054 7.25006 8.84515 7.02165C8.93976 6.79324 9.09998 6.59802 9.30554 6.46066ZM15 6.25C14.7528 6.25 14.5111 6.32331 14.3055 6.46066C14.1 6.59801 13.9398 6.79324 13.8452 7.02165C13.7505 7.25005 13.7258 7.50139 13.774 7.74386C13.8223 7.98634 13.9413 8.20907 14.1161 8.38388C14.2909 8.5587 14.5137 8.67775 14.7561 8.72598C14.9986 8.77421 15.2499 8.74946 15.4784 8.65485C15.7068 8.56024 15.902 8.40002 16.0393 8.19446C16.1767 7.9889 16.25 7.74723 16.25 7.5C16.25 7.16848 16.1183 6.85054 15.8839 6.61612C15.6495 6.3817 15.3315 6.25 15 6.25ZM1.25 13.75H18.75V15H1.25V13.75ZM1.25 16.25H18.75V17.5H1.25V16.25ZM5 6.25C4.75277 6.25 4.5111 6.32331 4.30554 6.46066C4.09998 6.59801 3.93976 6.79324 3.84515 7.02165C3.75054 7.25005 3.72579 7.50139 3.77402 7.74386C3.82225 7.98634 3.9413 8.20907 4.11612 8.38388C4.29093 8.5587 4.51366 8.67775 4.75614 8.72598C4.99861 8.77421 5.24995 8.74946 5.47835 8.65485C5.70676 8.56024 5.90199 8.40002 6.03934 8.19446C6.17669 7.9889 6.25 7.74723 6.25 7.5C6.25 7.16848 6.1183 6.85054 5.88388 6.61612C5.64946 6.3817 5.33152 6.25 5 6.25Z" fill="#050D20"/>
</svg>

<svg xmlns="http://www.w3.org/2000/svg" width="20" height="20" fill="none" viewBox="0 0 20 20"><path fill="#050d20" fill-rule="evenodd" d="M2.5 12.5h15a1.25 1.25 0 0 0 1.25-1.25v-7.5A1.253 1.253 0 0 0 17.5 2.5h-15a1.253 1.253 0 0 0-1.25 1.25v7.5A1.253 1.253 0 0 0 2.5 12.5m0-8.75h15v7.5h-15zm6.111 5.829A2.5 2.5 0 1 0 11.39 5.42a2.5 2.5 0 0 0-2.78 4.16m.695-3.118a1.25 1.25 0 1 1 1.388 2.078 1.25 1.25 0 0 1-1.388-2.078M15 6.25a1.25 1.25 0 1 0 0 2.5 1.25 1.25 0 0 0 0-2.5m-13.75 7.5h17.5V15H1.25zm0 2.5h17.5v1.25H1.25zM5 6.25a1.25 1.25 0 1 0 0 2.5 1.25 1.25 0 0 0 0-2.5" clip-rule="evenodd"/></svg>
